X:78
T: Hejtok lányok guzsalyasba
O: Trunk (Bákó), 1938
Q: 1/4=144
M:2/4
L:1/4
K:C
A/B/c/B/ | cB | AG | 
d/c/B/A/ | G (F//E//D/) | D D/ z/ |
D/F/E/D/ | G (F//E//D/) | E e | 
d/c/B/A/ | G (F//E//D/) | D D/ z/ | 

